X: 1
T: The Dogs Among The Bushes
R: reel
M: 4/4
L: 1/8
K: Gmaj
BG~G2 DG~G2|BG~G2 cedc|BG~G2 DGFG|AF~F2 fdcA|
BG~G2 DG~G2|BG~G2 c2cA|BG~G2 DGFG|AF~F2 fdcA||
dggf ~g3f|dg~g2 bgaf|dffe fgfe|df~f2 af~f2|
dggf ~g3f|dg~g2 bgag|bg~g2 aggf|d^cde fd=cA||
"version 2"
|:BG~G2 DG~G2|BG~G2 cedc|B2GB DGBd|AF~F2 fdcd|
BG~G2 DG~G2|BG~G2 cedc|B2Bc defd|1 cAeg fdcd:|2 cAeg fdcA||
|:dggf g2gf|dg~g2 bgaf|defe ~f3e|dfeg fdcA|
dggf ~g3f|dg~g2 bgag|bg~g2 agbg|1 d2eg fdcA:|2 d2eg fdcd||


Tune 595	Setting 13605

